src/images/partners/openCover.svg

<svg xmlns="http://www.w3.org/2000/svg" width="400" height="400" fill="none"><circle cx="200" cy="200" r="200" fill="#131026"/><path fill="#00B4E6" d="M323 192.917H77v14.414h246z"/><path fill="#fff" d="M136.722 153.134c-5.093 5.237-11.579 7.88-19.555 7.88s-14.51-2.643-19.555-7.88c-5.093-5.237-7.64-11.771-7.64-19.651 0-7.832 2.547-14.366 7.592-19.603 5.093-5.237 11.579-7.88 19.555-7.88s14.51 2.643 19.555 7.88c5.093 5.237 7.592 11.771 7.592 19.603.048 7.88-2.499 14.414-7.544 19.651m-19.555-2.691c4.132 0 7.351-1.537 9.706-4.612s3.507-7.207 3.507-12.3c0-5.141-1.153-9.273-3.507-12.396s-5.574-4.661-9.706-4.661c-4.18 0-7.447 1.538-9.753 4.613s-3.46 7.207-3.46 12.444c0 5.141 1.153 9.225 3.46 12.3s5.525 4.612 9.753 4.612M150.704 176.485v-69.044h13.309v6.487h.288c3.844-5.285 8.937-7.928 15.327-7.928 6.823 0 12.3 2.546 16.432 7.591 4.132 5.093 6.198 11.676 6.198 19.892 0 8.408-2.066 15.038-6.198 20.035-4.132 4.949-9.561 7.448-16.336 7.448s-11.771-2.451-14.99-7.4h-.192v22.919zm26.09-26.955q5.26 0 8.36-4.18c2.066-2.786 3.075-6.582 3.075-11.483 0-5.189-.961-9.273-2.931-12.252s-4.949-4.468-9.033-4.468c-4.132 0-7.159 1.537-9.129 4.612s-2.931 7.111-2.931 12.108c0 4.805 1.057 8.601 3.267 11.387 2.163 2.883 5.238 4.276 9.322 4.276M233.056 160.966c-8.408 0-14.991-2.595-19.795-7.736-4.805-5.189-7.207-11.771-7.207-19.843 0-7.784 2.402-14.27 7.207-19.507s10.954-7.88 18.45-7.88c8.168 0 14.51 2.835 18.978 8.504 4.469 5.67 6.679 13.309 6.679 22.823h-37.669c.529 4.132 1.922 7.303 4.18 9.561 2.21 2.258 5.285 3.411 9.129 3.411 5.093 0 8.408-2.114 10.042-6.39h13.597c-1.009 4.853-3.603 8.937-7.687 12.156-4.181 3.315-9.466 4.901-15.904 4.901m-1.105-44.3c-6.679 0-10.714 3.7-12.06 11.147h23.111c-.192-3.315-1.298-6.006-3.364-8.072-2.017-2.066-4.564-3.075-7.687-3.075M277.307 107.441v7.111h.289q5.404-8.504 15.423-8.504c5.333 0 9.657 1.826 12.972 5.429 3.316 3.604 4.949 8.313 4.949 14.03v33.969h-13.789v-31.951c0-2.835-.817-5.141-2.403-6.919-1.585-1.777-3.795-2.642-6.63-2.642-3.027 0-5.574 1.105-7.543 3.363-2.018 2.21-2.979 5.093-2.979 8.6v29.501h-13.79v-51.987zM103.81 294.584c-8.024 0-14.51-2.595-19.363-7.832-4.853-5.189-7.303-11.771-7.303-19.699s2.402-14.462 7.159-19.699c4.757-5.189 11.05-7.832 18.834-7.832 6.535 0 11.916 1.73 16.048 5.189s6.679 8.072 7.591 13.886h-13.501c-.48-2.354-1.537-4.276-3.267-5.766-1.682-1.489-3.796-2.21-6.294-2.21-4.036 0-7.159 1.441-9.321 4.372s-3.267 6.919-3.267 12.06c0 5.093 1.057 9.081 3.123 12.012 2.114 2.931 5.189 4.42 9.225 4.42 6.006 0 9.513-2.931 10.426-8.841h13.309c-.481 5.766-2.787 10.475-7.015 14.27-4.132 3.748-9.609 5.67-16.384 5.67M177.466 286.704c-5.093 5.237-11.58 7.88-19.555 7.88-7.976 0-14.511-2.643-19.555-7.88-5.093-5.237-7.592-11.771-7.592-19.603 0-7.831 2.547-14.366 7.592-19.603 5.093-5.237 11.579-7.88 19.555-7.88s14.51 2.643 19.555 7.88c5.093 5.237 7.591 11.772 7.591 19.603s-2.546 14.366-7.591 19.603m-19.603-2.69c4.132 0 7.351-1.538 9.705-4.613s3.507-7.207 3.507-12.3c0-5.141-1.153-9.273-3.507-12.396s-5.573-4.66-9.705-4.66c-4.18 0-7.448 1.537-9.754 4.612s-3.459 7.207-3.459 12.444c0 5.141 1.153 9.225 3.459 12.3 2.354 3.075 5.574 4.613 9.754 4.613M203.748 293.046l-18.066-52.034h13.982l8.312 27.002 2.354 8.312h.192c.481-2.21 1.202-4.997 2.211-8.312l8.504-27.002h13.837l-18.161 52.034zM262.653 294.584c-8.408 0-14.99-2.595-19.795-7.736-4.805-5.189-7.207-11.771-7.207-19.843 0-7.783 2.402-14.27 7.207-19.507s10.955-7.88 18.45-7.88c8.168 0 14.51 2.835 18.978 8.505 4.469 5.669 6.679 13.309 6.679 22.822h-37.717c.529 4.132 1.922 7.303 4.18 9.561 2.21 2.258 5.285 3.412 9.129 3.412 5.093 0 8.408-2.114 10.042-6.391h13.597c-1.009 4.853-3.603 8.937-7.687 12.156-4.18 3.267-9.418 4.901-15.856 4.901m-1.105-44.347c-6.678 0-10.714 3.699-12.06 11.147h23.111c-.192-3.316-1.297-6.006-3.363-8.072-2.018-2.018-4.565-3.075-7.688-3.075M306.664 241.012v8.312h.288c1.634-3.027 3.411-5.285 5.381-6.727 1.97-1.441 4.421-2.162 7.4-2.162 1.441 0 2.498.144 3.267.384v12.06h-.289q-6.99-.72-11.243 3.027c-2.834 2.499-4.276 6.438-4.276 11.772v25.368h-13.789v-52.034z"/></svg>

<svg width="400" height="400" viewBox="0 0 400 400" fill="none" xmlns="http://www.w3.org/2000/svg">
<circle cx="200" cy="200" r="200" fill="#131026"/>
<path d="M323 192.917H77V207.331H323V192.917Z" fill="#00B4E6"/>
<path d="M136.722 153.134C131.629 158.371 125.143 161.014 117.167 161.014C109.191 161.014 102.657 158.371 97.6121 153.134C92.5191 147.897 89.9727 141.363 89.9727 133.483C89.9727 125.651 92.5191 119.117 97.5641 113.88C102.657 108.643 109.143 106 117.119 106C125.095 106 131.629 108.643 136.674 113.88C141.767 119.117 144.266 125.651 144.266 133.483C144.314 141.363 141.767 147.897 136.722 153.134ZM117.167 150.443C121.299 150.443 124.518 148.906 126.873 145.831C129.227 142.756 130.38 138.624 130.38 133.531C130.38 128.39 129.227 124.258 126.873 121.135C124.518 118.012 121.299 116.474 117.167 116.474C112.987 116.474 109.72 118.012 107.414 121.087C105.107 124.162 103.954 128.294 103.954 133.531C103.954 138.672 105.107 142.756 107.414 145.831C109.72 148.906 112.939 150.443 117.167 150.443Z" fill="white"/>
<path d="M150.704 176.485V107.441H164.013V113.928H164.301C168.145 108.643 173.238 106 179.628 106C186.451 106 191.928 108.546 196.06 113.591C200.192 118.684 202.258 125.267 202.258 133.483C202.258 141.891 200.192 148.521 196.06 153.518C191.928 158.467 186.499 160.966 179.724 160.966C172.95 160.966 167.953 158.515 164.734 153.566H164.542V176.485H150.704ZM176.794 149.53C180.301 149.53 183.088 148.137 185.154 145.35C187.22 142.564 188.229 138.768 188.229 133.867C188.229 128.678 187.268 124.594 185.298 121.615C183.328 118.636 180.349 117.147 176.265 117.147C172.133 117.147 169.106 118.684 167.136 121.759C165.166 124.834 164.205 128.87 164.205 133.867C164.205 138.672 165.262 142.468 167.472 145.254C169.635 148.137 172.71 149.53 176.794 149.53Z" fill="white"/>
<path d="M233.056 160.966C224.648 160.966 218.065 158.371 213.261 153.23C208.456 148.041 206.054 141.459 206.054 133.387C206.054 125.603 208.456 119.117 213.261 113.88C218.065 108.643 224.215 106 231.711 106C239.879 106 246.221 108.835 250.689 114.504C255.158 120.174 257.368 127.813 257.368 137.327H219.699C220.228 141.459 221.621 144.63 223.879 146.888C226.089 149.146 229.164 150.299 233.008 150.299C238.101 150.299 241.416 148.185 243.05 143.909H256.647C255.638 148.762 253.044 152.846 248.96 156.065C244.779 159.38 239.494 160.966 233.056 160.966ZM231.951 116.666C225.272 116.666 221.237 120.366 219.891 127.813H243.002C242.81 124.498 241.704 121.807 239.638 119.741C237.621 117.675 235.074 116.666 231.951 116.666Z" fill="white"/>
<path d="M277.307 107.441V114.552H277.596C281.199 108.883 286.34 106.048 293.019 106.048C298.352 106.048 302.676 107.874 305.991 111.477C309.307 115.081 310.94 119.79 310.94 125.507V159.476H297.151V127.525C297.151 124.69 296.334 122.384 294.748 120.606C293.163 118.829 290.953 117.964 288.118 117.964C285.091 117.964 282.544 119.069 280.575 121.327C278.557 123.537 277.596 126.42 277.596 129.927V159.428H263.806V107.441H277.307Z" fill="white"/>
<path d="M103.81 294.584C95.7862 294.584 89.2999 291.989 84.4472 286.752C79.5944 281.563 77.144 274.981 77.144 267.053C77.144 259.125 79.5464 252.591 84.303 247.354C89.0597 242.165 95.3538 239.522 103.137 239.522C109.672 239.522 115.053 241.252 119.185 244.711C123.317 248.171 125.864 252.783 126.776 258.597H113.275C112.795 256.243 111.738 254.321 110.008 252.831C108.326 251.342 106.212 250.621 103.714 250.621C99.678 250.621 96.555 252.062 94.3929 254.993C92.2308 257.924 91.1257 261.912 91.1257 267.053C91.1257 272.146 92.1827 276.134 94.2487 279.065C96.3628 281.996 99.4378 283.485 103.474 283.485C109.48 283.485 112.987 280.554 113.9 274.644H127.209C126.728 280.41 124.422 285.119 120.194 288.914C116.062 292.662 110.585 294.584 103.81 294.584Z" fill="white"/>
<path d="M177.466 286.704C172.373 291.941 165.886 294.584 157.911 294.584C149.935 294.584 143.4 291.941 138.356 286.704C133.263 281.467 130.764 274.933 130.764 267.101C130.764 259.27 133.311 252.735 138.356 247.498C143.449 242.261 149.935 239.618 157.911 239.618C165.886 239.618 172.421 242.261 177.466 247.498C182.559 252.735 185.057 259.27 185.057 267.101C185.057 274.933 182.511 281.467 177.466 286.704ZM157.863 284.014C161.995 284.014 165.214 282.476 167.568 279.401C169.922 276.326 171.075 272.194 171.075 267.101C171.075 261.96 169.922 257.828 167.568 254.705C165.214 251.582 161.995 250.045 157.863 250.045C153.683 250.045 150.415 251.582 148.109 254.657C145.803 257.732 144.65 261.864 144.65 267.101C144.65 272.242 145.803 276.326 148.109 279.401C150.463 282.476 153.683 284.014 157.863 284.014Z" fill="white"/>
<path d="M203.748 293.046L185.682 241.012H199.664L207.976 268.014L210.33 276.326H210.522C211.003 274.116 211.724 271.329 212.733 268.014L221.237 241.012H235.074L216.913 293.046H203.748Z" fill="white"/>
<path d="M262.653 294.584C254.245 294.584 247.663 291.989 242.858 286.848C238.053 281.659 235.651 275.077 235.651 267.005C235.651 259.222 238.053 252.735 242.858 247.498C247.663 242.261 253.813 239.618 261.308 239.618C269.476 239.618 275.818 242.453 280.286 248.123C284.755 253.792 286.965 261.432 286.965 270.945H249.248C249.777 275.077 251.17 278.248 253.428 280.506C255.638 282.764 258.713 283.918 262.557 283.918C267.65 283.918 270.965 281.804 272.599 277.527H286.196C285.187 282.38 282.593 286.464 278.509 289.683C274.329 292.95 269.091 294.584 262.653 294.584ZM261.548 250.237C254.87 250.237 250.834 253.936 249.488 261.384H272.599C272.407 258.068 271.302 255.378 269.236 253.312C267.218 251.294 264.671 250.237 261.548 250.237Z" fill="white"/>
<path d="M306.664 241.012V249.324H306.952C308.586 246.297 310.363 244.039 312.333 242.597C314.303 241.156 316.754 240.435 319.733 240.435C321.174 240.435 322.231 240.579 323 240.819V252.879H322.711C318.051 252.399 314.303 253.408 311.468 255.906C308.634 258.405 307.192 262.344 307.192 267.678V293.046H293.403V241.012H306.664Z" fill="white"/>
</svg>
